spyder/images/dark/package_new.svg

<svg width="24" height="24" viewBox="0 0 24 24" fill="none" xmlns="http://www.w3.org/2000/svg">
<path d="M3.484 17.002H2.294C2.098 17.002 2 16.904 2 16.708V8.294C2 8.098 2.098 8 2.294 8H5.71C6.438 8 7.00267 8.20067 7.404 8.602C7.80533 8.994 8.006 9.554 8.006 10.282V11.626C8.006 12.354 7.80533 12.9187 7.404 13.32C7.00267 13.712 6.438 13.908 5.71 13.908H3.946C3.834 13.908 3.778 13.9593 3.778 14.062V16.708C3.778 16.904 3.68 17.002 3.484 17.002ZM3.932 12.354H5.416C5.71467 12.354 5.92467 12.2933 6.046 12.172C6.16733 12.0413 6.228 11.8313 6.228 11.542V10.366C6.228 10.0673 6.16733 9.85733 6.046 9.736C5.92467 9.60533 5.71467 9.54 5.416 9.54H3.932C3.82933 9.54 3.778 9.59133 3.778 9.694V12.2C3.778 12.3027 3.82933 12.354 3.932 12.354Z" fill="#FAFAFA"/>
<path d="M10.4458 19.368H9.54983C9.36316 19.368 9.26983 19.2653 9.26983 19.06V18.122C9.26983 17.9167 9.36316 17.814 9.54983 17.814H9.84383C10.4318 17.814 10.8285 17.73 11.0338 17.562C11.2485 17.4033 11.4118 17.0907 11.5238 16.624H10.7818C10.6045 16.624 10.4878 16.526 10.4318 16.33L8.79383 10.156C8.73783 9.96 8.80783 9.862 9.00383 9.862H10.2498C10.4365 9.862 10.5532 9.96 10.5998 10.156L11.8038 15.322H11.8598L13.0498 10.156C13.0872 9.96 13.2038 9.862 13.3998 9.862H14.5758C14.8092 9.862 14.9025 9.96467 14.8558 10.17L13.1478 17.002C12.9425 17.7767 12.6252 18.3647 12.1958 18.766C11.7665 19.1673 11.1832 19.368 10.4458 19.368Z" fill="#FAFAFA"/>
<path d="M17.4977 17.002H16.3077C16.1117 17.002 16.0137 16.904 16.0137 16.708V8.294C16.0137 8.098 16.1117 8 16.3077 8H19.7237C20.4517 8 21.0163 8.20067 21.4177 8.602C21.819 8.994 22.0197 9.554 22.0197 10.282V11.626C22.0197 12.354 21.819 12.9187 21.4177 13.32C21.0163 13.712 20.4517 13.908 19.7237 13.908H17.9597C17.8477 13.908 17.7917 13.9593 17.7917 14.062V16.708C17.7917 16.904 17.6937 17.002 17.4977 17.002ZM17.9457 12.354H19.4297C19.7283 12.354 19.9383 12.2933 20.0597 12.172C20.181 12.0413 20.2417 11.8313 20.2417 11.542V10.366C20.2417 10.0673 20.181 9.85733 20.0597 9.736C19.9383 9.60533 19.7283 9.54 19.4297 9.54H17.9457C17.843 9.54 17.7917 9.59133 17.7917 9.694V12.2C17.7917 12.3027 17.843 12.354 17.9457 12.354Z" fill="#FAFAFA"/>
</svg>

<svg xmlns="http://www.w3.org/2000/svg" width="24" height="24" fill="none"><path fill="#FAFAFA" d="M3.484 17.002h-1.19c-.196 0-.294-.098-.294-.294V8.294C2 8.098 2.098 8 2.294 8H5.71c.728 0 1.293.2 1.694.602.401.392.602.952.602 1.68v1.344c0 .728-.2 1.293-.602 1.694-.401.392-.966.588-1.694.588H3.946c-.112 0-.168.051-.168.154v2.646c0 .196-.098.294-.294.294Zm.448-4.648h1.484c.299 0 .509-.06.63-.182.121-.13.182-.34.182-.63v-1.176c0-.299-.06-.509-.182-.63-.121-.13-.331-.196-.63-.196H3.932c-.103 0-.154.051-.154.154V12.2c0 .103.051.154.154.154ZM10.446 19.368H9.55c-.187 0-.28-.103-.28-.308v-.938c0-.205.093-.308.28-.308h.294c.588 0 .985-.084 1.19-.252.214-.159.378-.471.49-.938h-.742c-.178 0-.294-.098-.35-.294l-1.638-6.174c-.056-.196.014-.294.21-.294h1.246c.187 0 .303.098.35.294l1.204 5.166h.056l1.19-5.166c.037-.196.154-.294.35-.294h1.176c.233 0 .326.103.28.308l-1.708 6.832c-.205.775-.523 1.363-.952 1.764-.43.401-1.013.602-1.75.602ZM17.498 17.002h-1.19c-.196 0-.294-.098-.294-.294V8.294c0-.196.098-.294.294-.294h3.416c.728 0 1.292.2 1.694.602.401.392.602.952.602 1.68v1.344c0 .728-.201 1.293-.602 1.694-.402.392-.966.588-1.694.588H17.96c-.112 0-.168.051-.168.154v2.646c0 .196-.098.294-.294.294Zm.448-4.648h1.484c.298 0 .508-.06.63-.182.121-.13.182-.34.182-.63v-1.176c0-.299-.061-.509-.182-.63-.122-.13-.332-.196-.63-.196h-1.484c-.103 0-.154.051-.154.154V12.2c0 .103.051.154.154.154Z"/></svg>
